; HEADER_BLOCK_START
; generated by AnycubicSlicerNext 1.1.1 on 2024-09-23 at 21:49:23
; total layer number: 507
; filament_density: 1.24
; filament_diameter: 1.75
; max_z_height: 101.40
; HEADER_BLOCK_END

; THUMBNAIL_BLOCK_START

;
; THUMBNAIL_BLOCK_END

; external perimeters extrusion width = 0.42mm
; perimeters extrusion width = 0.45mm
; infill extrusion width = 0.45mm
; solid infill extrusion width = 0.42mm
; top infill extrusion width = 0.42mm
; first layer extrusion width = 0.50mm

; EXECUTABLE_BLOCK_START
;TYPE:Custom
G9111 bedTemp=60 extruderTemp=220
M117
M900 K0.051
G90
G21
M83 ; use relative distances for extrusion
; filament start gcode
M106 S0
;LAYER_CHANGE
;Z:0.2
;HEIGHT:0.2
; BEFORE_LAYER_CHANGE 0 @ 0.2mm
G1 E-1 F3600
; AFTER_LAYER_CHANGE 0 @ 0.2mm
;_SET_FAN_SPEED_CHANGING_LAYER
SET_VELOCITY_LIMIT ACCEL=500 ACCEL_TO_DECEL=250
SET_VELOCITY_LIMIT SQUARE_CORNER_VELOCITY=9
G1 X105.221 Y109.869 F21000
G1 Z.2
G1 E1 F3600
;TYPE:Skirt
;WIDTH:0.5
G1 F3000
G1 X105.776 Y109.491 E.02451
G1 X106.799 Y109.024 E.04105
G1 X107.805 Y108.781 E.03776
G1 X108.624 Y108.71 E.02997
G1 X150.245 Y108.682 E1.51858
G1 X151.241 Y108.791 E.03657
G1 X152.223 Y109.069 E.03725
G1 X152.933 Y109.402 E.0286
G1 X153.601 Y109.846 E.02926
G1 X154.264 Y110.466 E.03314
G1 X154.847 Y111.258 E.03586
G1 X155.396 Y112.551 E.05127
G1 X155.553 Y113.433 E.03266
G1 X155.584 Y141.319 E1.01746
G1 X155.513 Y141.968 E.02381
G1 X155.298 Y142.795 E.03118
G1 X154.981 Y143.519 E.02886
G1 X154.546 Y144.195 E.02931
G1 X153.62 Y145.135 E.04815
G1 X153.065 Y145.516 E.02455
G1 X152.038 Y145.987 E.04124
G1 X151.029 Y146.232 E.03787
G1 X150.209 Y146.304 E.03002
G1 X108.644 Y146.32 E1.51656
G1 X107.351 Y146.159 E.04754
G1 X106.226 Y145.769 E.04344
G1 X105.577 Y145.405 E.02717
G1 X104.959 Y144.929 E.02846
G1 X104.311 Y144.23 E.03477
G1 X103.784 Y143.382 E.03642
G1 X103.437 Y142.467 E.03572
G1 X103.252 Y141.103 E.05022
G1 X103.238 Y113.933 E.99134
G1 X103.359 Y112.813 E.04109
G1 X103.856 Y111.478 E.05198
G1 X104.293 Y110.804 E.02928
G1 X105.193 Y109.898 E.0466
G1 X105.518 Y110.226 F21000
G1 F3000
G1 X105.56 Y110.185 E.00215
G1 X106.399 Y109.678 E.03575
G1 X106.942 Y109.458 E.0214
G1 X107.87 Y109.233 E.03481
G1 X108.631 Y109.167 E.0279
G1 X150.225 Y109.139 E1.51759
G1 X151.159 Y109.241 E.03428
G1 X152.056 Y109.495 E.03401
G1 X152.712 Y109.802 E.02645
G1 X153.322 Y110.208 E.02671
G1 X153.926 Y110.774 E.0302
G1 X154.457 Y111.495 E.03266
G1 X154.953 Y112.667 E.04645
G1 X155.097 Y113.47 E.02977
G1 X155.127 Y141.3 E1.0154
G1 X154.868 Y142.641 E.04982
G1 X154.579 Y143.302 E.02634
G1 X154.18 Y143.921 E.02687
G1 X153.279 Y144.82 E.04643
G1 X152.44 Y145.331 E.03586
G1 X151.894 Y145.553 E.02149
G1 X150.964 Y145.78 E.03491
G1 X150.201 Y145.847 E.02795
G1 X108.651 Y145.863 E1.516
G1 X107.451 Y145.713 E.04414
G1 X106.418 Y145.354 E.03989
G1 X105.266 Y144.591 E.05042
G1 X104.676 Y143.954 E.03168
G1 X104.195 Y143.183 E.03316
G1 X103.879 Y142.35 E.03253
G1 X103.709 Y141.103 E.04591
G1 X103.695 Y113.932 E.99134
G1 X103.806 Y112.91 E.03753
G1 X104.257 Y111.696 E.04723
G1 X104.658 Y111.08 E.02684
G1 X105.49 Y110.255 E.04275
G1 X105.809 Y110.577 F21000
G1 F3000
G1 X105.838 Y110.548 E.00151
G1 X106.591 Y110.092 E.0321
G1 X107.085 Y109.892 E.01945
G1 X107.934 Y109.686 E.03187
G1 X108.639 Y109.624 E.02583
G1 X150.206 Y109.595 E1.5166
G1 X151.077 Y109.691 E.032
G1 X151.889 Y109.92 E.03077
G1 X153.043 Y110.57 E.04833
G1 X153.588 Y111.081 E.02727
G1 X154.066 Y111.732 E.02945
G1 X154.511 Y112.783 E.04164
G1 X154.648 Y113.586 E.02972
G1 X154.671 Y141.281 E1.01049
G1 X154.438 Y142.486 E.04479
G1 X154.177 Y143.085 E.02382
G1 X153.814 Y143.647 E.02442
G1 X153 Y144.458 E.04192
G1 X152.246 Y144.917 E.0322
G1 X151.75 Y145.12 E.01953
G1 X150.9 Y145.327 E.03196
G1 X150.193 Y145.39 E.02587
G1 X108.658 Y145.406 E1.51545
G1 X107.551 Y145.267 E.04073
G1 X106.61 Y144.939 E.03634
G1 X105.574 Y144.253 E.04535
G1 X104.997 Y143.621 E.03121
G1 X104.607 Y142.983 E.02729
G1 X104.32 Y142.232 E.02933
G1 X104.166 Y141.102 E.0416
G1 X104.152 Y113.932 E.99134
G1 X104.253 Y113.006 E.03398
G1 X104.658 Y111.915 E.04247
G1 X105.023 Y111.355 E.02439
G1 X105.781 Y110.605 E.03889
G1 X106.099 Y110.928 F21000
G1 F3000
G1 X106.116 Y110.911 E.00089
G1 X106.784 Y110.507 E.02844
G1 X107.318 Y110.296 E.02096
G1 X108.647 Y110.081 E.04912
G1 X150.186 Y110.052 E1.51561
G1 X150.996 Y110.14 E.02972
G1 X151.722 Y110.346 E.02752
G1 X152.764 Y110.933 E.04365
G1 X153.25 Y111.389 E.02433
G1 X153.675 Y111.969 E.02625
G1 X154.069 Y112.899 E.03682
G1 X154.192 Y113.623 E.02683
G1 X154.214 Y141.262 E1.00842
G1 X154.007 Y142.332 E.03976
G1 X153.775 Y142.867 E.0213
G1 X153.448 Y143.373 E.02197
G1 X152.721 Y144.096 E.03741
G1 X152.053 Y144.503 E.02853
G1 X151.517 Y144.715 E.02103
G1 X150.185 Y144.933 E.04923
G1 X108.666 Y144.949 E1.51489
G1 X107.651 Y144.821 E.03733
G1 X106.802 Y144.525 E.03279
G1 X105.881 Y143.915 E.04029
G1 X105.362 Y143.346 E.02812
G1 X105.018 Y142.784 E.02403
G1 X104.762 Y142.115 E.02614
G1 X104.623 Y141.102 E.03729
G1 X104.609 Y113.932 E.99134
G1 X104.699 Y113.103 E.03042
G1 X105.06 Y112.134 E.03771
G1 X105.388 Y111.63 E.02195
G1 X106.071 Y110.956 E.03501
G1 X106.389 Y111.279 F21000
G1 F3000
G1 X106.395 Y111.273 E.00029
G1 X107.461 Y110.731 E.04365
G1 X108.655 Y110.538 E.04412
G1 X150.167 Y110.509 E1.51462
G1 X150.914 Y110.59 E.02743
G1 X151.554 Y110.771 E.02428
G1 X152.485 Y111.295 E.03896
G1 X152.912 Y111.697 E.02139
G1 X153.285 Y112.207 E.02304
G1 X153.627 Y113.014 E.03201
G1 X153.737 Y113.661 E.02394
G1 X153.757 Y141.243 E1.00636
G1 X153.577 Y142.178 E.03473
G1 X153.372 Y142.65 E.01878
G1 X153.082 Y143.1 E.01952
G1 X152.441 Y143.735 E.0329
G1 X151.859 Y144.089 E.02487
G1 X151.373 Y144.281 E.01907
G1 X150.77 Y144.422 E.0226
G1 X150.048 Y144.478 E.02642
G1 X108.802 Y144.494 E1.5049
G1 X107.851 Y144.397 E.03488
G1 X106.994 Y144.11 E.03299
G1 X106.189 Y143.577 E.03522
G1 X105.726 Y143.07 E.02503
G1 X105.429 Y142.585 E.02077
G1 X105.204 Y141.997 E.02295
G1 X105.081 Y141.102 E.03298
G1 X105.066 Y113.932 E.99134
G1 X105.146 Y113.2 E.02687
G1 X105.461 Y112.353 E.03296
G1 X105.753 Y111.905 E.01951
G1 X106.36 Y111.307 E.0311
G1 X106.673 Y111.636 F21000
G1 F3000
G1 X107.604 Y111.165 E.03807
G1 X108.792 Y110.993 E.0438
G1 X150.147 Y110.965 E1.5089
G1 X150.832 Y111.04 E.02515
G1 X151.387 Y111.197 E.02104
G1 X152.206 Y111.657 E.03428
G1 X152.894 Y112.444 E.03812
G1 X153.185 Y113.13 E.02719
G1 X153.281 Y113.699 E.02105
G1 X153.302 Y141.184 E1.00284
G1 X153.147 Y142.024 E.03114
G1 X152.97 Y142.433 E.01627
G1 X152.716 Y142.826 E.01708
G1 X152.162 Y143.373 E.02839
G1 X151.23 Y143.847 E.03818
G1 X150.04 Y144.021 E.04387
G1 X108.809 Y144.037 E1.50434
G1 X107.951 Y143.951 E.03148
G1 X107.265 Y143.731 E.02629
G1 X106.497 Y143.239 E.0333
G1 X106.091 Y142.795 E.02194
G1 X105.646 Y141.88 E.03712
G1 X105.538 Y141.102 E.02867
G1 X105.523 Y113.931 E.99134
G1 X105.593 Y113.296 E.02331
G1 X105.862 Y112.572 E.0282
G1 X106.118 Y112.18 E.01706
G1 X106.644 Y111.664 E.02689
; printing object SmartTemperatureTower_PLA_180-225.stl id:0 copy 0
;WIPE_START
G1 X107.604 Y111.165 E-.54085
G1 X108.513 Y111.033 E-.45915
;WIPE_END
G1 X123.317 Y126.887 F21000
G1 E1 F3600
;TYPE:Outer wall
G1 F2700
G1 X123.342 Y126.886 E.00091
G1 X123.342 Y127.185 E.01091
G2 X123.323 Y126.926 I-2.557 J.064 E.00946
G1 E-.19578 F3600
;WIPE_START
G1 F2700
G1 X123.342 Y126.886 E-.05995
G1 X123.342 Y127.185 E-.39866
G1 X123.323 Y126.926 E-.3456
;WIPE_END
G1 X139.32 Y127.714 F21000
G1 E1 F3600
G1 F2700
G2 X139.517 Y127.486 I-.795 J-.887 E.011
G1 X139.514 Y128.671 E.04324
G1 X139.103 Y127.868 E.03293
G2 X139.29 Y127.74 I-.578 J-1.042 E.0083
;WIPE_START
G1 X139.517 Y127.486 E-.17009
G1 X139.514 Y128.671 E-.59256
G1 X139.298 Y128.249 E-.23735
;WIPE_END
G1 X140.2 Y129.872 F21000
G1 E1 F3600
;TYPE:Inner wall
G1 F2700
G1 X140.029 Y129.854 E.00631
G3 X139.118 Y129.69 I.867 J-7.443 E.03378
G1 X138.839 Y129.835 E.01148
G1 X138.312 Y129.978 E.01993
G3 X136.863 Y129.873 I-.506 J-3.079 E.05348
G3 X136.256 Y129.483 I.356 J-1.221 E.02669
G1 X136.147 Y129.413 E.00475
G1 X135.975 Y129.502 E.00704
G1 X135.89 Y129.618 E.00527
G1 X135.313 Y129.858 E.02279
G3 X133.37 Y129.876 I-1 J-3.037 E.07202
G1 X133.073 Y129.752 E.01176
G1 X133.136 Y130.803 E.03839
G3 X128.218 Y130.79 I-2.196 J-100.873 E.17944
G1 X128.287 Y129.734 E.0386
G3 X126.607 Y129.984 I-1.235 J-2.532 E.06295
G3 X125.775 Y129.714 I.403 J-2.659 E.03206
G1 X125.837 Y131.058 E.04908
G3 X122.771 Y131.064 I-1.804 J-143.645 E.11184
G1 X122.808 Y129.628 E.05241
G3 X121.242 Y130.009 I-1.325 J-2.032 E.05998
G3 X119.735 Y129.255 I.031 J-1.943 E.06357
G3 X119.296 Y129.671 I-1.084 J-.706 E.02228
G3 X117.815 Y130.01 I-1.241 J-2.021 E.05642
G3 X116.491 Y129.542 I.019 J-2.158 E.05217
G1 X116.226 Y129.337 E.01222
G3 X115.692 Y128.107 I2.485 J-1.81 E.04933
G3 X115.699 Y127.105 I5.164 J-.467 E.03663
G1 X115.927 Y126.54 E.02221
G1 X115.536 Y125.884 E.02789
G1 X116.232 Y125.271 E.03384
G3 X118.699 Y124.903 I1.668 J2.73 E.09347
G3 X119.299 Y125.185 I-1.53 J4.047 E.02423
G1 X119.539 Y125.43 E.0125
G2 X120.073 Y125.079 I-2.278 J-4.049 E.02334
G3 X121.892 Y124.848 I1.275 J2.77 E.06794
G1 X122.418 Y125.02 E.02021
G1 X122.668 Y125.212 E.0115
G1 X123.066 Y125.038 E.01585
G1 X123.276 Y124.898 E.00919
G3 X124.182 Y124.824 I.72 J3.23 E.03329
G3 X124.958 Y125.122 I-.529 J2.536 E.03047
G1 X125.33 Y125.488 E.01903
G3 X125.82 Y125.083 I1.469 J1.281 E.0233
G3 X126.871 Y124.804 I1.09 J1.981 E.04008
G3 X128.291 Y125.106 I.218 J2.459 E.05374
G1 X129.412 Y124.95 E.04131
G3 X131.957 Y124.95 I1.273 J22.69 E.09292
G1 X132.537 Y125.031 E.02135
G3 X134.026 Y124.911 I1.242 J6.139 E.05464
G3 X135.269 Y124.888 I.662 J2.185 E.04594
G1 X135.51 Y124.995 E.00962
G2 X135.672 Y125.102 I.332 J-.325 E.00713
G1 X136.444 Y124.953 E.0287
G3 X137.528 Y124.911 I.967 J11.044 E.03961
G3 X138.234 Y124.794 I1.038 J4.057 E.02615
G3 X138.895 Y124.921 I-.628 J5.044 E.02456
G1 X139.185 Y125.067 E.01185
G1 X139.337 Y124.736 E.01331
G1 X139.732 Y124.203 E.0242
G3 X141.045 Y123.637 I1.892 J2.582 E.0526
G3 X141.422 Y123.603 I.562 J4.069 E.01383
G3 X143.276 Y124.023 I.222 J3.32 E.07034
G1 X144.139 Y124.583 E.03752
G1 X143.469 Y125.568 E.04345
G1 X143.384 Y125.738 E.00693
G2 X143.799 Y126.366 I51.428 J-33.543 E.0275
G1 X143.942 Y126.873 E.01921
G3 X143.994 Y127.507 I-3.445 J.602 E.02323
G1 X143.996 Y127.505 E.0001
G3 X143.382 Y129.301 I-2.648 J.097 E.07084
G3 X141.107 Y129.901 I-1.584 J-1.394 E.09103
G3 X140.441 Y129.89 I-.212 J-7.49 E.02433
G1 X140.24 Y129.875 E.00734
;WIPE_START
G1 X140.029 Y129.854 E-.10643
G1 X139.118 Y129.69 E-.46259
G1 X138.839 Y129.835 E-.15727
G1 X138.312 Y129.978 E-.27312
G1 X138.31 Y129.978 E-.00058
;WIPE_END
G1 X139.52 Y126.01 F21000
G1 E1 F3600
;TYPE:Outer wall
G1 F2700
G3 X139.732 Y124.97 I3.183 J.108 E.03892
G1 X140.046 Y124.547 E.0192
G3 X141.451 Y124.059 I1.455 J1.922 E.05517
G3 X143.038 Y124.413 I.193 J2.865 E.06014
G1 X143.498 Y124.712 E.02003
G1 X143.075 Y125.336 E.0275
G1 X142.828 Y125.824 E.01997
G3 X143.225 Y126.345 I-1.069 J1.227 E.02405
G1 X143.381 Y126.566 E.00986
G3 X143.518 Y127.858 I-2.9 J.961 E.04777
G3 X142.252 Y129.498 I-1.851 J-.12 E.08023
G3 X141.08 Y129.398 I-.444 J-1.706 E.04372
G1 X141.063 Y129.443 E.00176
G3 X139.513 Y129.299 I-.21 J-6.15 E.05693
G1 X139.514 Y128.969 E.01203
G2 X138.672 Y129.407 I162.054 J312.787 E.03462
G1 X138.229 Y129.526 E.01673
G3 X137.034 Y129.449 I-.43 J-2.632 E.04408
G3 X136.558 Y129.134 I.214 J-.841 E.02122
G3 X136.297 Y128.899 I.24 J-.529 E.01303
G3 X135.944 Y127.885 I1.201 J-.987 E.04
G1 X135.944 Y127.58 E.01115
G3 X135.599 Y127.868 I-.878 J-.698 E.01653
G1 X136.131 Y128.906 E.04256
G1 X135.67 Y129.145 E.01894
G1 X135.597 Y129.245 E.00451
G3 X133.534 Y129.449 I-1.286 J-2.47 E.07749
G3 X133.058 Y129.136 I.215 J-.847 E.02118
G3 X132.793 Y128.899 I.242 J-.536 E.01318
G3 X132.44 Y127.885 I1.201 J-.987 E.04
G1 X132.44 Y127.081 E.02934
G2 X131.707 Y128.048 I8.372 J7.104 E.04428
G2 X131.128 Y128.736 I5.924 J5.575 E.03281
G3 X132.548 Y128.739 I.574 J55.702 E.05179
G1 X132.548 Y129.309 E.02078
G1 X132.608 Y129.646 E.01253
G1 X132.651 Y130.355 E.02589
G3 X128.705 Y130.346 I-1.75 J-103.393 E.14397
G3 X128.811 Y128.953 I26.06 J1.283 E.051
G2 X129.697 Y127.769 I-10.162 J-8.53 E.05396
G2 X130.267 Y127.079 I-5.897 J-5.448 E.03265
G1 X129.027 Y127.079 E.04524
G3 X128.886 Y128.39 I-3.047 J.335 E.04846
G3 X128.51 Y128.954 I-2.847 J-1.488 E.02477
G2 X128.169 Y129.245 I.456 J.882 E.0165
G3 X127.261 Y129.548 I-.972 J-1.397 E.03541
G3 X125.959 Y129.273 I-.247 J-2.043 E.04945
G2 X125.601 Y128.948 I-1.561 J1.361 E.01769
G3 X125.252 Y128.433 I2.569 J-2.116 E.02273
G2 X125.321 Y129.79 I7.577 J.292 E.04967
G1 X125.358 Y130.605 E.02974
G3 X123.24 Y130.608 I-1.209 J-99.253 E.07728
G3 X123.343 Y128.751 I20.454 J.2 E.06787
G1 X123.342 Y127.591 E.04234
G3 X122.856 Y128.909 I-1.974 J.02 E.05242
G3 X122.262 Y129.406 I-1.012 J-.605 E.02879
G3 X120.602 Y129.399 I-.822 J-2.061 E.06209
G3 X119.862 Y128.595 I.842 J-1.516 E.04054
G3 X119.76 Y128.366 I1.323 J-.73 E.00917
G3 X119.365 Y128.987 I-2.1 J-.9 E.02697
G3 X119.057 Y129.281 I-.722 J-.447 E.01568
G3 X117.845 Y129.554 I-1.003 J-1.626 E.04617
G3 X116.571 Y129.026 I.037 J-1.892 E.05151
G3 X116.134 Y127.452 I1.733 J-1.329 E.0611
G1 X116.15 Y127.208 E.0089
G1 X116.321 Y126.785 E.01663
G1 X116.59 Y126.785 E.00984
G2 X116.123 Y125.976 I-8.899 J4.602 E.03413
G1 X116.492 Y125.65 E.01797
G3 X118.558 Y125.339 I1.406 J2.325 E.07821
G3 X119.025 Y125.558 I-1.188 J3.15 E.01886
G2 X119.417 Y125.92 I4.864 J-4.87 E.01949
G3 X119.868 Y126.785 I-1.368 J1.262 E.036
G1 X120.022 Y126.785 E.00565
G1 X119.571 Y125.94 E.03496
G2 X120.288 Y125.487 I-2.763 J-5.161 E.03098
G3 X122.202 Y125.43 I1.022 J2.16 E.07188
G3 X122.797 Y125.868 I-20.869 J28.982 E.02693
G3 X123.017 Y126.133 I-1.457 J1.433 E.01261
G1 X122.964 Y125.581 E.02023
G2 X123.451 Y125.33 I-.451 J-1.473 E.02008
G3 X124.279 Y125.311 I.461 J2.01 E.03044
G3 X125.031 Y125.901 I-.329 J1.194 E.0358
G3 X125.233 Y126.421 I-1.023 J.695 E.02051
G3 X125.967 Y125.532 I2.068 J.962 E.04252
G3 X126.902 Y125.26 I.898 J1.341 E.03611
G3 X128.073 Y125.508 I.164 J2.107 E.04426
G2 X128.51 Y125.862 I1.643 J-1.585 E.02055
G3 X128.75 Y126.184 I-4.546 J3.638 E.01466
G1 X128.75 Y125.504 E.02481
G3 X130.443 Y125.372 I1.572 J9.239 E.06204
G3 X131.913 Y125.406 I.297 J19.042 E.05366
G1 X132.549 Y125.494 E.02345
G3 X133.951 Y125.37 I1.196 J5.533 E.05149
G1 X133.974 Y125.426 E.0022
G3 X135.27 Y125.388 I.691 J1.45 E.0487
G2 X135.689 Y125.646 I3.727 J-5.603 E.01795
G3 X135.944 Y125.906 I-.933 J1.168 E.01331
G1 X135.944 Y125.515 E.01425
G3 X137.455 Y125.37 I1.312 J5.718 E.05556
G1 X137.478 Y125.426 E.0022
G3 X138.86 Y125.415 I.703 J1.46 E.05211
G2 X139.268 Y125.705 I6.839 J-9.209 E.01825
G3 X139.497 Y125.977 I-1.488 J1.485 E.01301
;WIPE_START
G1 X139.567 Y125.551 E-.21598
G1 X139.672 Y125.101 E-.23096
G1 X139.732 Y124.97 E-.07217
G1 X140.046 Y124.547 E-.26316
G1 X140.417 Y124.321 E-.21698
G1 X140.418 Y124.321 E-.00075
;WIPE_END
G1 X144.006 Y127.496 F21000
G1 E1 F3600
;TYPE:Inner wall
G1 F2700
G3 X145.842 Y129.31 I-12.599 J14.592 E.09425
G3 X147.018 Y131.398 I-4.047 J3.653 E.08816
G3 X147.026 Y133.437 I-4.605 J1.038 E.07499
G2 X146.82 Y135.215 I10.857 J2.158 E.06536
G2 X147.579 Y137.646 I4.906 J-.198 E.094
G2 X149.362 Y140.06 I18.917 J-12.103 E.10956
G3 X149.882 Y140.764 I-12.312 J9.637 E.03193
G3 X146.696 Y139.395 I.692 J-6.001 E.1283
G3 X145.526 Y137.514 I2.961 J-3.148 E.08176
G2 X144.647 Y135.389 I-11.039 J3.319 E.08403
G2 X141.461 Y132.766 I-5.057 J2.896 E.15394
G2 X138.138 Y132.054 I-4.998 J15.218 E.12422
G2 X131.959 Y131.712 I-6.628 J63.86 E.22588
G2 X122.518 Y131.889 I-2.484 J119.675 E.34463
G2 X118.469 Y132.447 I1.643 J26.9 E.14926
G2 X115.711 Y133.66 I1.556 J7.279 E.11071
G2 X113.607 Y136.672 I4.024 J5.052 E.13591
G3 X112.932 Y138.41 I-11.585 J-3.498 E.0681
G3 X110.953 Y140.192 I-3.72 J-2.141 E.09882
G3 X108.96 Y140.779 I-2.796 J-5.819 E.07612
G3 X110.694 Y138.515 I131.738 J99.057 E.10406
G2 X111.872 Y136.261 I-5.47 J-4.294 E.09331
G2 X111.936 Y134.206 I-4.487 J-1.168 E.07564
