; HEADER_BLOCK_START
; generated by AnycubicSlicerNext 1.2.0 on 2024-10-10 at 17:02:04
; total layer number: 557
; filament_density: 0
; filament_diameter: 1.75
; max_z_height: 111.40
; HEADER_BLOCK_END

; THUMBNAIL_BLOCK_START

;
; THUMBNAIL_BLOCK_END

; external perimeters extrusion width = 0.42mm
; perimeters extrusion width = 0.45mm
; infill extrusion width = 0.45mm
; solid infill extrusion width = 0.42mm
; top infill extrusion width = 0.42mm
; first layer extrusion width = 0.50mm

; EXECUTABLE_BLOCK_START
;TYPE:Custom
G9111 bedTemp=90 extruderTemp=250
M117
M900 K0.051
G90
G21
M83 ; use relative distances for extrusion
; filament start gcode
M106 S0
;LAYER_CHANGE
;Z:0.2
;HEIGHT:0.2
; BEFORE_LAYER_CHANGE 0 @ 0.2mm
M109 S250
G1 E-2 F4800
; AFTER_LAYER_CHANGE 0 @ 0.2mm
;_SET_FAN_SPEED_CHANGING_LAYER
SET_VELOCITY_LIMIT ACCEL=500 ACCEL_TO_DECEL=250
SET_VELOCITY_LIMIT SQUARE_CORNER_VELOCITY=9
; printing object SmartTemperatureTower_ABS_200-250.stl id:144680345676153346 copy 0
G1 X123.317 Y126.887 F21000
G1 Z.2
G1 E2 F4800
;TYPE:Outer wall
;WIDTH:0.5
G1 F2700
G1 X123.342 Y126.886 E.00092
G1 X123.342 Y127.185 E.01114
G2 X123.323 Y126.926 I-2.557 J.064 E.00966
G1 E-1.4 F4800
;WIPE_START
G1 F2700
G1 X123.342 Y126.886 E-.04473
G1 X123.342 Y127.185 E-.29743
G1 X123.323 Y126.926 E-.25784
;WIPE_END
G1 X139.517 Y127.486 F21000
G1 E2 F4800
G1 F2700
G1 X139.514 Y128.671 E.04414
G1 X139.103 Y127.868 E.03361
G2 X139.494 Y127.519 I-.578 J-1.042 E.01971
G1 E-1.4 F4800
;WIPE_START
G1 F2700
G1 X139.514 Y128.671 E-.34575
G1 X139.128 Y127.917 E-.25425
;WIPE_END
G1 X123.836 Y124.822 F21000
G1 E2 F4800
;TYPE:Inner wall
G1 F2700
G3 X124.182 Y124.824 I.159 J3.305 E.0129
G3 X124.958 Y125.122 I-.529 J2.536 E.03111
G1 X125.33 Y125.488 E.01943
G3 X125.82 Y125.083 I1.469 J1.281 E.02378
G3 X126.871 Y124.804 I1.09 J1.981 E.04092
G3 X128.291 Y125.106 I.218 J2.459 E.05486
G1 X129.412 Y124.95 E.04217
G3 X131.957 Y124.95 I1.273 J22.69 E.09485
G1 X132.537 Y125.031 E.0218
G3 X134.026 Y124.911 I1.242 J6.139 E.05578
G3 X135.269 Y124.888 I.662 J2.185 E.04689
G1 X135.51 Y124.995 E.00982
G2 X135.672 Y125.102 I.332 J-.325 E.00727
G1 X136.444 Y124.953 E.0293
G3 X137.528 Y124.911 I.967 J11.044 E.04043
G3 X138.234 Y124.794 I1.038 J4.057 E.0267
G3 X138.895 Y124.921 I-.628 J5.044 E.02507
G1 X139.185 Y125.067 E.0121
G1 X139.337 Y124.736 E.01358
G1 X139.732 Y124.203 E.0247
G3 X141.045 Y123.637 I1.892 J2.582 E.0537
G3 X141.422 Y123.603 I.562 J4.069 E.01412
G3 X143.276 Y124.023 I.222 J3.32 E.07181
G1 X144.139 Y124.583 E.0383
G1 X143.469 Y125.568 E.04435
G1 X143.384 Y125.738 E.00708
G2 X143.799 Y126.366 I51.428 J-33.543 E.02807
G1 X143.942 Y126.873 E.01961
G3 X143.994 Y127.507 I-3.445 J.602 E.02371
G1 X143.996 Y127.505 E.0001
G3 X143.382 Y129.301 I-2.648 J.097 E.07232
G3 X141.107 Y129.901 I-1.584 J-1.394 E.09293
G3 X139.118 Y129.69 I-.212 J-7.49 E.07474
G1 X138.839 Y129.835 E.01172
G1 X138.312 Y129.978 E.02035
G3 X136.863 Y129.873 I-.506 J-3.079 E.05459
G3 X136.256 Y129.483 I.356 J-1.221 E.02724
G1 X136.147 Y129.413 E.00484
G1 X135.975 Y129.502 E.00718
G1 X135.89 Y129.618 E.00538
G1 X135.313 Y129.858 E.02327
G3 X133.37 Y129.876 I-1 J-3.037 E.07352
G1 X133.073 Y129.752 E.01201
G1 X133.136 Y130.803 E.03919
G3 X128.218 Y130.79 I-2.196 J-100.873 E.18318
G1 X128.287 Y129.734 E.0394
G3 X126.607 Y129.984 I-1.235 J-2.532 E.06426
G3 X125.775 Y129.714 I.403 J-2.659 E.03273
G1 X125.837 Y131.058 E.05011
G3 X122.771 Y131.064 I-1.804 J-143.645 E.11417
G1 X122.808 Y129.628 E.0535
G3 X121.242 Y130.009 I-1.325 J-2.032 E.06123
G3 X119.735 Y129.255 I.031 J-1.943 E.06489
G3 X119.296 Y129.671 I-1.084 J-.706 E.02275
G3 X117.815 Y130.01 I-1.241 J-2.021 E.05759
G3 X116.491 Y129.542 I.019 J-2.158 E.05326
G1 X116.226 Y129.337 E.01247
G3 X115.692 Y128.107 I2.485 J-1.81 E.05036
G3 X115.699 Y127.105 I5.164 J-.467 E.0374
G1 X115.927 Y126.54 E.02267
G1 X115.536 Y125.884 E.02847
G1 X116.232 Y125.271 E.03455
G3 X118.699 Y124.903 I1.668 J2.73 E.09542
G3 X119.299 Y125.185 I-1.53 J4.047 E.02474
G1 X119.539 Y125.43 E.01276
G2 X120.073 Y125.079 I-2.278 J-4.049 E.02383
G3 X121.892 Y124.848 I1.275 J2.77 E.06936
G1 X122.418 Y125.02 E.02063
G1 X122.668 Y125.212 E.01174
G1 X123.066 Y125.038 E.01618
G1 X123.276 Y124.898 E.00938
G3 X123.796 Y124.824 I.72 J3.23 E.01959
G1 E-1.4 F4800
;WIPE_START
G1 F2700
G1 X124.182 Y124.824 E-.11584
G1 X124.4 Y124.87 E-.06689
G1 X124.583 Y124.932 E-.05801
G1 X124.958 Y125.122 E-.12612
G1 X125.33 Y125.488 E-.1565
G1 X125.491 Y125.31 E-.07195
G1 X125.503 Y125.301 E-.00469
;WIPE_END
G1 X125.252 Y128.433 F21000
G1 E2 F4800
;TYPE:Outer wall
G1 F2700
G2 X125.321 Y129.79 I7.577 J.292 E.0507
G1 X125.358 Y130.605 E.03036
G3 X123.24 Y130.608 I-1.209 J-99.253 E.07889
G3 X123.343 Y128.751 I20.454 J.2 E.06928
G1 X123.342 Y127.591 E.04323
G3 X122.856 Y128.909 I-1.974 J.02 E.05351
G3 X122.262 Y129.406 I-1.012 J-.605 E.02938
G3 X120.602 Y129.399 I-.822 J-2.061 E.06339
G3 X119.862 Y128.595 I.842 J-1.516 E.04139
G3 X119.76 Y128.366 I1.323 J-.73 E.00936
G3 X119.365 Y128.987 I-2.1 J-.9 E.02753
G3 X119.057 Y129.281 I-.722 J-.447 E.01601
G3 X117.845 Y129.554 I-1.003 J-1.626 E.04713
G3 X116.571 Y129.026 I.037 J-1.892 E.05259
G3 X116.134 Y127.452 I1.733 J-1.329 E.06238
G1 X116.15 Y127.208 E.00909
G1 X116.321 Y126.785 E.01698
G1 X116.59 Y126.785 E.01005
G2 X116.123 Y125.976 I-8.899 J4.602 E.03484
G1 X116.492 Y125.65 E.01835
G3 X118.558 Y125.339 I1.406 J2.325 E.07984
G3 X119.025 Y125.558 I-1.188 J3.15 E.01925
G2 X119.417 Y125.92 I4.864 J-4.87 E.0199
G3 X119.868 Y126.785 I-1.368 J1.262 E.03675
G1 X120.022 Y126.785 E.00577
G1 X119.571 Y125.94 E.03569
G2 X120.288 Y125.487 I-2.763 J-5.161 E.03163
G3 X122.202 Y125.43 I1.022 J2.16 E.07338
G3 X122.797 Y125.868 I-20.869 J28.982 E.02749
G3 X123.017 Y126.133 I-1.457 J1.433 E.01287
G1 X122.964 Y125.581 E.02065
G2 X123.451 Y125.33 I-.451 J-1.473 E.0205
G3 X124.279 Y125.311 I.461 J2.01 E.03108
G3 X125.031 Y125.901 I-.329 J1.194 E.03654
G3 X125.233 Y126.421 I-1.023 J.695 E.02094
G3 X125.967 Y125.532 I2.068 J.962 E.0434
G3 X126.902 Y125.26 I.898 J1.341 E.03686
G3 X128.073 Y125.508 I.164 J2.107 E.04519
G2 X128.51 Y125.862 I1.643 J-1.585 E.02098
G3 X128.75 Y126.184 I-4.546 J3.638 E.01496
G1 X128.75 Y125.504 E.02533
G3 X130.443 Y125.372 I1.572 J9.239 E.06333
G3 X131.913 Y125.406 I.297 J19.042 E.05478
G1 X132.549 Y125.494 E.02394
G3 X133.951 Y125.37 I1.196 J5.533 E.05256
G1 X133.974 Y125.426 E.00225
G3 X135.27 Y125.388 I.691 J1.45 E.04972
G2 X135.689 Y125.646 I3.727 J-5.603 E.01833
G3 X135.944 Y125.906 I-.933 J1.168 E.01359
G1 X135.944 Y125.515 E.01454
G3 X137.455 Y125.37 I1.312 J5.718 E.05672
G1 X137.478 Y125.426 E.00225
G3 X138.86 Y125.415 I.703 J1.46 E.05319
G2 X139.268 Y125.705 I6.839 J-9.209 E.01863
G3 X139.52 Y126.01 I-1.488 J1.485 E.01477
G3 X139.732 Y124.97 I3.183 J.108 E.03973
G1 X140.046 Y124.547 E.0196
G3 X141.451 Y124.059 I1.455 J1.922 E.05632
G3 X143.038 Y124.413 I.193 J2.865 E.06139
G1 X143.498 Y124.712 E.02044
G1 X143.075 Y125.336 E.02807
G1 X142.828 Y125.824 E.02038
G3 X143.225 Y126.345 I-1.069 J1.227 E.02455
G1 X143.381 Y126.566 E.01006
G3 X143.518 Y127.858 I-2.9 J.961 E.04877
G3 X142.252 Y129.498 I-1.851 J-.12 E.08191
G3 X141.08 Y129.398 I-.444 J-1.706 E.04463
G1 X141.063 Y129.443 E.0018
G3 X139.513 Y129.299 I-.21 J-6.15 E.05812
G1 X139.514 Y128.969 E.01228
G2 X138.672 Y129.407 I162.054 J312.787 E.03534
G1 X138.229 Y129.526 E.01708
G3 X137.034 Y129.449 I-.43 J-2.632 E.04499
G3 X136.558 Y129.134 I.214 J-.841 E.02166
G3 X136.297 Y128.899 I.24 J-.529 E.0133
G3 X135.944 Y127.885 I1.201 J-.987 E.04083
G1 X135.944 Y127.58 E.01138
G3 X135.599 Y127.868 I-.878 J-.698 E.01688
G1 X136.131 Y128.906 E.04345
G1 X135.67 Y129.145 E.01934
G1 X135.597 Y129.245 E.0046
G3 X133.534 Y129.449 I-1.286 J-2.47 E.0791
G3 X133.058 Y129.136 I.215 J-.847 E.02162
G3 X132.793 Y128.899 I.242 J-.536 E.01346
G3 X132.44 Y127.885 I1.201 J-.987 E.04083
G1 X132.44 Y127.081 E.02995
G2 X131.707 Y128.048 I8.372 J7.104 E.04521
G2 X131.128 Y128.736 I5.924 J5.575 E.03349
G3 X132.548 Y128.739 I.574 J55.702 E.05287
G1 X132.548 Y129.309 E.02122
G1 X132.608 Y129.646 E.01279
G1 X132.651 Y130.355 E.02643
G3 X128.705 Y130.346 I-1.75 J-103.393 E.14697
G3 X128.811 Y128.953 I26.06 J1.283 E.05206
G2 X129.697 Y127.769 I-10.162 J-8.53 E.05509
G2 X130.267 Y127.079 I-5.897 J-5.448 E.03333
G1 X129.027 Y127.079 E.04618
G3 X128.886 Y128.39 I-3.047 J.335 E.04947
G3 X128.51 Y128.954 I-2.847 J-1.488 E.02529
G2 X128.169 Y129.245 I.456 J.882 E.01684
G3 X127.261 Y129.548 I-.972 J-1.397 E.03615
G3 X125.959 Y129.273 I-.247 J-2.043 E.05048
G2 X125.601 Y128.948 I-1.561 J1.361 E.01806
G3 X125.271 Y128.468 I2.569 J-2.116 E.02171
G1 E-1.4 F4800
;WIPE_START
G1 F2700
G1 X125.262 Y129.344 E-.26296
G1 X125.321 Y129.79 E-.13505
G1 X125.352 Y130.463 E-.20199
;WIPE_END
G1 X144.006 Y127.496 F21000
G1 E2 F4800
;TYPE:Inner wall
G1 F2700
G3 X145.842 Y129.31 I-12.599 J14.592 E.09622
G3 X147.018 Y131.398 I-4.047 J3.653 E.09
G3 X147.026 Y133.437 I-4.605 J1.038 E.07655
G2 X146.82 Y135.215 I10.857 J2.158 E.06672
G2 X147.579 Y137.646 I4.906 J-.198 E.09596
G2 X149.362 Y140.06 I18.917 J-12.103 E.11185
G3 X149.882 Y140.764 I-12.312 J9.637 E.0326
G3 X146.696 Y139.395 I.692 J-6.001 E.13097
G3 X145.526 Y137.514 I2.961 J-3.148 E.08346
G2 X144.647 Y135.389 I-11.039 J3.319 E.08578
G2 X141.461 Y132.766 I-5.057 J2.896 E.15715
G2 X138.138 Y132.054 I-4.998 J15.218 E.1268
G2 X131.959 Y131.712 I-6.628 J63.86 E.23058
G2 X122.518 Y131.889 I-2.484 J119.675 E.35181
G2 X118.469 Y132.447 I1.643 J26.9 E.15237
G2 X115.711 Y133.66 I1.556 J7.279 E.11302
G2 X113.607 Y136.672 I4.024 J5.052 E.13874
G3 X112.932 Y138.41 I-11.585 J-3.498 E.06952
G3 X110.953 Y140.192 I-3.72 J-2.141 E.10088
G3 X108.96 Y140.779 I-2.796 J-5.819 E.0777
G3 X110.694 Y138.515 I131.738 J99.057 E.10623
G2 X111.872 Y136.261 I-5.47 J-4.294 E.09526
G2 X111.936 Y134.206 I-4.487 J-1.168 E.07721
G3 X111.709 Y132.143 I10.144 J-2.16 E.07742
G3 X112.589 Y129.84 I4.25 J.303 E.09318
G3 X114.023 Y128.249 I8.795 J6.49 E.0799
G1 X114.824 Y127.515 E.04046
G3 X112.775 Y125.439 I11.82 J-13.713 E.10875
G3 X111.747 Y123.301 I3.589 J-3.042 E.08934
G3 X111.805 Y121.572 I5.205 J-.693 E.06473
G2 X112.009 Y119.794 I-10.792 J-2.142 E.06675
G2 X111.246 Y117.363 I-4.912 J.206 E.09598
G2 X109.463 Y114.951 I-19.009 J12.188 E.11181
G3 X108.946 Y114.25 I12.171 J-9.53 E.03245
G3 X112.133 Y115.619 I-.69 J6.001 E.13105
G3 X113.303 Y117.5 I-2.963 J3.148 E.08344
G2 X114.183 Y119.624 I11.018 J-3.316 E.08577
G2 X117.515 Y122.297 I5.103 J-2.949 E.16281
G2 X120.932 Y122.984 I5.085 J-16.452 E.13006
G2 X127.297 Y123.302 I6.638 J-69.07 E.23745
G2 X136.025 Y123.136 I1.982 J-125.407 E.32518
G2 X140.187 Y122.598 I-1.636 J-29.037 E.15646
G2 X142.923 Y121.484 I-1.553 J-7.733 E.11068
G2 X145.222 Y118.329 I-3.657 J-5.081 E.1479
G3 X145.897 Y116.59 I11.546 J3.48 E.06953
G3 X148.019 Y114.741 I3.773 J2.188 E.10673
G3 X149.859 Y114.222 I2.617 J5.758 E.07148
G1 X149.647 Y114.529 E.01388
G2 X148.012 Y116.659 I192.729 J149.739 E.10002
G2 X146.913 Y118.92 I5.23 J3.938 E.09423
G2 X146.895 Y120.803 I5.003 J.989 E.07052
G3 X147.121 Y122.867 I-10.05 J2.146 E.07747
G3 X146.148 Y125.291 I-4.38 J-.35 E.09881
G3 X144.955 Y126.615 I-8.641 J-6.59 E.06644
G1 X144.035 Y127.469 E.04674
G1 X144.678 Y127.495 F21000
;TYPE:Outer wall
G1 F2700
G3 X146.788 Y129.813 I-7.992 J9.396 E.11705
G3 X147.514 Y133.27 I-3.777 J2.597 E.13506
G2 X147.277 Y135.21 I11.861 J2.43 E.07288
G2 X147.972 Y137.412 I4.443 J-.191 E.08698
G2 X149.722 Y139.779 I18.601 J-11.924 E.10974
G3 X150.474 Y140.959 I-3.456 J3.033 E.05232
G3 X150.471 Y141.132 I-.126 J.084 E.00688
G3 X149.609 Y141.185 I-.522 J-1.444 E.03261
G3 X146.386 Y139.731 I.941 J-6.383 E.13338
G3 X145.095 Y137.667 I3.277 J-3.486 E.09171
G2 X144.253 Y135.62 I-10.668 J3.193 E.08257
G2 X140.887 Y133.055 I-4.814 J2.827 E.16165
G2 X137.356 Y132.429 I-5.154 J18.8 E.13375
G2 X129.858 Y132.151 I-7.028 J88.302 E.27957
G2 X121.737 Y132.411 I-.969 J96.82 E.30272
G2 X118.1 Y133.018 I1.636 J20.98 E.13752
G2 X115.339 Y134.61 I1.446 J5.697 E.12019
G2 X114.037 Y136.826 I4.805 J4.314 E.09637
G3 X113.332 Y138.631 I-11.897 J-3.606 E.07223
G3 X111.151 Y140.604 I-4.126 J-2.368 E.1114
G3 X108.845 Y141.23 I-2.714 J-5.441 E.08957
G3 X108.349 Y141.122 I-.094 J-.766 E.01928
G3 X108.533 Y140.621 I1.056 J.103 E.02012
G3 X109.837 Y138.888 I16.637 J11.163 E.08082
G2 X111.27 Y136.618 I-7.343 J-6.224 E.10031
G2 X111.484 Y134.273 I-3.837 J-1.532 E.08894
G3 X111.247 Y132.352 I11.316 J-2.368 E.07217
G3 X112.218 Y129.572 I4.663 J.069 E.11157
G3 X114.149 Y127.513 I10.243 J7.675 E.10536
G3 X112.04 Y125.196 I7.984 J-9.386 E.11705
G3 X111.317 Y121.74 I3.78 J-2.595 E.13498
G2 X111.527 Y120.359 I-51.8 J-8.602 E.05203
G2 X110.854 Y117.598 I-4.261 J-.424 E.10792
G2 X109.103 Y115.232 I-18.694 J12.008 E.10971
G3 X108.351 Y114.05 I3.421 J-3.006 E.05239
G3 X108.465 Y113.837 I.111 J-.078 E.01114
G3 X109.836 Y113.95 I.436 J3.075 E.05168
G3 X112.647 Y115.48 I-1.404 J5.925 E.12062
G3 X113.734 Y117.347 I-3.524 J3.303 E.08116
G2 X114.577 Y119.393 I10.647 J-3.19 E.08255
G2 X117.661 Y121.864 I4.705 J-2.713 E.15062
G2 X120.983 Y122.53 I4.942 J-16.034 E.12643
G2 X127.303 Y122.845 I6.587 J-68.628 E.23575
G2 X135.994 Y122.68 I1.977 J-124.948 E.32384
G2 X140.084 Y122.152 I-1.608 J-28.601 E.15373
G2 X142.663 Y121.108 I-1.45 J-7.286 E.10426
G2 X144.792 Y118.175 I-3.398 J-4.705 E.13729
G3 X145.497 Y116.369 I11.858 J3.588 E.07225
G3 X147.834 Y114.323 I4.171 J2.406 E.11781
G3 X150.039 Y113.77 I2.529 J5.413 E.0852
G1 X150.146 Y113.775 E.004
G3 X150.48 Y113.883 I.011 J.539 E.0133
G3 X150.261 Y114.436 I-1.174 J-.145 E.02242
G3 X148.988 Y116.117 I-19.215 J-13.228 E.07856
G2 X147.624 Y118.227 I8.374 J6.906 E.09375
G2 X147.347 Y120.733 I3.72 J1.681 E.0955
G3 X147.583 Y122.653 I-11.243 J2.359 E.07211
G3 X146.615 Y125.427 I-4.664 J-.072 E.11135
G3 X144.709 Y127.469 I-10.002 J-7.423 E.10427
G1 E-1.4 F4800
;WIPE_START
G1 F2700
G1 X145.416 Y128.184 E-.30168
G1 X145.957 Y128.746 E-.23387
G1 X146.095 Y128.91 E-.06445
;WIPE_END
G1 X144.096 Y128.004 F21000
G1 E2 F4800
;TYPE:Bottom surface
;WIDTH:0.510796
G1 F2700
G3 X145.583 Y129.534 I-21.624 J22.487 E.08135
G3 X146.578 Y131.146 I-4.278 J3.753 E.07258
G1 X144.132 Y128.701 E.13187
G3 X143.914 Y129.145 I-1.505 J-.462 E.01893
G1 X146.764 Y131.995 E.15367
G3 X146.773 Y132.665 I-3.321 J.376 E.02559
G1 X143.638 Y129.53 E.16904
G3 X143.287 Y129.841 I-1.466 J-1.294 E.01791
G1 X146.701 Y133.255 E.18404
G1 X146.611 Y133.827 E.02208
G1 X142.881 Y130.097 E.20112
G3 X142.402 Y130.279 I-.764 J-1.284 E.01964
G1 X146.533 Y134.41 E.22274
G2 X146.483 Y135.021 I2.747 J.536 E.02342
G1 X141.824 Y130.363 E.25116
G1 X141.805 Y130.365 E.00075
G3 X141.042 Y130.243 I-.01 J-2.37 E.02959
G1 X146.514 Y135.715 E.29504
G2 X146.706 Y136.569 I3.377 J-.311 E.03346
G1 X140.365 Y130.227 E.3419
G3 X139.606 Y130.13 I.04 J-3.32 E.02924
G1 X142.158 Y132.681 E.13756
G3 X145.214 Y135.738 I-2.587 J5.643 E.16833
G1 X148.019 Y138.542 E.15122
G1 E-1.4 F4800
;WIPE_START
G1 F2700
G1 X146.604 Y137.128 E-.6
;WIPE_END
G1 X145.315 Y136.501 F21000
G1 E2 F4800
G1 F2700
G1 X149.063 Y140.248 E.20204
G1 X148.902 Y140.207 E.0063
G3 X148.007 Y139.854 I2.089 J-6.602 E.03675
G1 X145.678 Y137.526 E.12554
G1 E-1.4 F4800
;WIPE_START
G1 F2700
G1 X147.092 Y138.94 E-.6
;WIPE_END
G1 X141.429 Y132.614 F21000
G1 E2 F4800
G1 F2700
G1 X138.969 Y130.154 E.13264
G1 X138.448 Y130.296 E.02055
G1 X140.206 Y132.054 E.09479
G2 X139.389 Y131.898 I-1.428 J5.276 E.03175
G1 X137.848 Y130.357 E.08308
G1 X137.136 Y130.307 E.02723
G1 X138.603 Y131.773 E.07908
G1 X137.851 Y131.683 E.02887
G1 X136.079 Y129.911 E.09554
G1 X135.611 Y130.105 E.01931
G1 X137.114 Y131.608 E.08106
G1 X136.397 Y131.553 E.02742
G1 X135.104 Y130.259 E.06976
G3 X134.527 Y130.344 I-.547 J-1.714 E.02232
G1 X135.683 Y131.5 E.06232
G1 X134.988 Y131.467 E.02653
G1 X133.853 Y130.332 E.0612
G3 X133.447 Y130.262 I.023 J-1.352 E.01576
G1 X133.468 Y130.608 E.01322
G1 X134.509 Y131.65 E.05614
G1 E-1.4 F4800
;WIPE_START
G1 F2700
G1 X133.468 Y130.608 E-.44177
G1 X133.447 Y130.262 E-.10403
G1 X133.623 Y130.303 E-.0542
;WIPE_END
G1 X148.277 Y139.095 F21000
G1 E2 F4800
